CSETWebApi/CSETWeb_Api/CSETWeb_ApiCore/Diagram/src/main/webapp/img/lib/mscae/MachineLearningWebServices.svg

<?xml version="1.0" encoding="UTF-8" standalone="no"?>
<svg
   xmlns:dc="http://purl.org/dc/elements/1.1/"
   xmlns:cc="http://creativecommons.org/ns#"
   xmlns:rdf="http://www.w3.org/1999/02/22-rdf-syntax-ns#"
   xmlns:svg="http://www.w3.org/2000/svg"
   xmlns="http://www.w3.org/2000/svg"
   xmlns:sodipodi="http://sodipodi.sourceforge.net/DTD/sodipodi-0.dtd"
   xmlns:inkscape="http://www.inkscape.org/namespaces/inkscape"
   version="1.1"
   id="Layer_1"
   x="0px"
   y="0px"
   width="23.525227"
   height="24"
   viewBox="0 0 23.525227 24"
   enable-background="new 0 0 24 24"
   xml:space="preserve"
   inkscape:version="0.91 r13725"
   sodipodi:docname="MachineLearningWebServices-color.svg"><metadata
     id="metadata17"><rdf:RDF><cc:Work
         rdf:about=""><dc:format>image/svg+xml</dc:format><dc:type
           rdf:resource="http://purl.org/dc/dcmitype/StillImage" /><dc:title></dc:title></cc:Work></rdf:RDF></metadata><defs
     id="defs15" /><sodipodi:namedview
     pagecolor="#ffffff"
     bordercolor="#666666"
     borderopacity="1"
     objecttolerance="10"
     gridtolerance="10"
     guidetolerance="10"
     inkscape:pageopacity="0"
     inkscape:pageshadow="2"
     inkscape:window-width="1920"
     inkscape:window-height="1018"
     id="namedview13"
     showgrid="false"
     fit-margin-top="0"
     fit-margin-left="0"
     fit-margin-right="0"
     fit-margin-bottom="0"
     inkscape:zoom="21.591036"
     inkscape:cx="11.29599"
     inkscape:cy="9.6477001"
     inkscape:window-x="-8"
     inkscape:window-y="-8"
     inkscape:window-maximized="1"
     inkscape:current-layer="Layer_1" /><path
     d="M 15.525227,0 C 11.446227,0 8.0872273,3.055 7.5942273,7 L 8.6062273,7 C 8.7212273,6.224 8.9602273,5.488 9.3082273,4.815 9.6722273,5.588 10.170227,6.312 10.744227,7 L 12.525227,7 12.525227,7.092 C 12.682227,7.036 12.849227,7 13.025227,7 13.852227,7 14.525227,7.673 14.525227,8.5 14.525227,9.327 13.852227,10 13.025227,10 12.849227,10 12.682227,9.964 12.525227,9.908 L 12.525227,10 11.525227,10 11.525227,10.461 C 11.640227,10.548 11.750227,10.642 11.878227,10.709 11.751227,11.2 11.633227,11.697 11.525227,12.199 L 11.525227,12.706 12.218227,13.934 C 12.380227,12.925 12.597227,11.944 12.846227,10.982 L 12.846227,10.982 C 12.906227,10.986 12.963227,11 13.025227,11 13.709227,11 14.329227,10.724 14.780227,10.278 15.630227,10.744 16.555227,11.137 17.527227,11.477 17.527227,11.485 17.525227,11.492 17.525227,11.5 17.525227,12.328 18.197227,13 19.025227,13 19.585227,13 20.067227,12.69 20.325227,12.235 20.545227,12.279 20.754227,12.341 20.978227,12.378 19.694227,13.974 17.728227,15 15.525227,15 14.398227,15 13.339227,14.723 12.395227,14.248 L 13.187227,15.651 C 13.927227,15.877 14.711227,16 15.525227,16 19.943227,16 23.525227,12.418 23.525227,8 23.525227,3.582 19.943227,0 15.525227,0 Z M 22.511227,7.714 C 21.802227,7.445 21.129227,7.136 20.496227,6.795 20.514227,6.699 20.525227,6.601 20.525227,6.5 20.525227,5.672 19.853227,5 19.025227,5 18.717227,5 18.430227,5.094 18.192227,5.253 17.393227,4.595 16.702227,3.871 16.150227,3.091 16.543227,2.456 16.960227,1.846 17.397227,1.264 20.259227,2.061 22.385227,4.63 22.511227,7.714 Z M 19.525227,6.5 C 19.525227,6.776 19.301227,7 19.025227,7 18.749227,7 18.525227,6.776 18.525227,6.5 18.525227,6.224 18.749227,6 19.025227,6 19.301227,6 19.525227,6.224 19.525227,6.5 Z M 15.525227,1 C 15.796227,1 16.063227,1.019 16.327227,1.049 16.067227,1.409 15.812227,1.777 15.568227,2.156 15.368227,1.787 15.199227,1.41 15.059227,1.023 15.213227,1.013 15.367227,1 15.525227,1 Z M 13.503227,6.048 C 13.348227,6.018 13.189227,6 13.025227,6 12.483227,6 11.985227,6.177 11.576227,6.469 L 11.577227,6.468 C 10.873227,5.634 10.314227,4.734 9.9572273,3.774 10.951227,2.467 12.395227,1.529 14.054227,1.172 14.282227,1.847 14.585227,2.5 14.972227,3.123 14.429227,4.048 13.950227,5.035 13.503227,6.048 Z M 19.025227,12 C 18.749227,12 18.525227,11.776 18.525227,11.5 18.525227,11.224 18.749227,11 19.025227,11 19.301227,11 19.525227,11.224 19.525227,11.5 19.525227,11.776 19.301227,12 19.025227,12 Z M 21.592227,11.473 C 21.224227,11.421 20.862227,11.358 20.504227,11.287 20.504227,11.287 20.504227,11.287 20.503227,11.287 20.399227,10.56 19.780227,10 19.025227,10 18.553227,10 18.137227,10.223 17.862227,10.564 16.967227,10.25 16.117227,9.883 15.334227,9.457 L 15.334227,9.457 C 15.456227,9.162 15.525227,8.839 15.525227,8.5 15.525227,7.633 15.083227,6.87 14.413227,6.422 14.777227,5.596 15.165227,4.792 15.595227,4.029 16.159227,4.758 16.835227,5.435 17.600227,6.055 L 17.600227,6.055 C 17.556227,6.196 17.525227,6.344 17.525227,6.5 17.525227,7.328 18.197227,8 19.025227,8 19.397227,8 19.732227,7.86 19.994227,7.636 20.767227,8.054 21.588227,8.428 22.460227,8.744 22.354227,9.728 22.064227,10.654 21.592227,11.473 Z"
     id="path3"
     inkscape:connector-curvature="0"
     style="fill:#a0a1a2" /><path
     d="M 11.525227,8 4.5252273,8 4.5252273,9 5.5252273,9 5.5252273,12.969 0.24522727,22.224 C -0.33077273,23.184 0.14922727,24 1.2532273,24 L 14.741227,24 C 15.893227,24 16.325227,23.232 15.749227,22.224 L 10.525227,12.969 10.525227,9 11.525227,9 11.525227,8 11.525227,8 Z"
     id="path5"
     inkscape:connector-curvature="0"
     style="fill:#59b4d9" /><path
     d="M 11.652227,17 4.3762273,17 1.1132273,22.72 C 1.0412273,22.84 1.0152273,22.921 1.0052273,22.966 1.0482273,22.981 1.1262273,23 1.2532273,23 L 14.741227,23 C 14.855227,23 14.937227,22.988 14.991227,22.975 14.976227,22.917 14.944227,22.832 14.881227,22.721 L 11.652227,17 Z"
     id="path7"
     inkscape:connector-curvature="0"
     style="fill:#0072c6" /><path
     enable-background="new    "
     d="M 4.5252273,9 5.5252273,9 5.5252273,12.969 0.24522727,22.224 C -0.33077273,23.184 0.14922727,24 1.2532273,24 L 2.7072273,24 6.5252273,17 8.5252273,13.333 8.5252273,8 4.5252273,8 4.5252273,9 Z"
     id="path9"
     inkscape:connector-curvature="0"
     style="opacity:0.25;fill:#ecf0f1" /><path
     enable-background="new    "
     d="M 3.2522273,23 6.5252273,17 4.3762273,17 1.1132273,22.72 C 1.0412273,22.84 1.0152273,22.921 1.0052273,22.966 1.0482273,22.981 1.1262273,23 1.2532273,23 L 3.2522273,23 Z"
     id="path11"
     inkscape:connector-curvature="0"
     style="opacity:0.25;fill:#ecf0f1" /></svg>

<svg xmlns="http://www.w3.org/2000/svg" width="23.525" height="24"><path d="M15.525 0c-4.08 0-7.438 3.055-7.93 7h1.012c.115-.776.354-1.512.702-2.185.364.773.862 1.497 1.436 2.185h1.78v.092c.157-.056.324-.092.5-.092a1.5 1.5 0 1 1 0 3c-.176 0-.343-.036-.5-.092V10h-1v.46c.115.087.225.18.353.248a37.18 37.18 0 0 0-.353 1.49v.507l.693 1.228a32.02 32.02 0 0 1 .628-2.952c.06.004.117.018.18.018a2.49 2.49 0 0 0 1.755-.722c.85.466 1.775.86 2.747 1.2 0 .008-.002.015-.002.023a1.5 1.5 0 0 0 1.5 1.5c.56 0 1.042-.3 1.3-.765.22.044.43.106.653.143C19.694 13.974 17.728 15 15.525 15c-1.127 0-2.186-.277-3.13-.752l.792 1.403a7.99 7.99 0 0 0 2.338.349 8 8 0 1 0 0-16zm6.986 7.714a16.86 16.86 0 0 1-2.015-.919c.018-.096.03-.194.03-.295a1.5 1.5 0 0 0-1.5-1.5c-.308 0-.595.094-.833.253-.8-.658-1.5-1.382-2.042-2.162a24.64 24.64 0 0 1 1.247-1.827c2.862.797 4.988 3.366 5.114 6.45zM19.525 6.5a.5.5 0 1 1-1 0 .5.5 0 1 1 1 0zm-4-5.5a7.09 7.09 0 0 1 .802.049c-.26.36-.515.728-.76 1.107a8.29 8.29 0 0 1-.509-1.133c.154-.01.308-.023.466-.023zm-2.022 5.048c-.155-.03-.314-.048-.478-.048-.542 0-1.04.177-1.45.47l.001-.001c-.704-.834-1.263-1.734-1.62-2.694.994-1.307 2.438-2.245 4.097-2.602.228.675.53 1.328.918 1.95-.543.925-1.022 1.912-1.47 2.925zM19.025 12a.5.5 0 1 1 0-1 .5.5 0 1 1 0 1zm2.567-.527a19.9 19.9 0 0 1-1.088-.186C20.4 10.56 19.78 10 19.025 10a1.49 1.49 0 0 0-1.163.564c-.895-.314-1.745-.68-2.528-1.107a2.5 2.5 0 0 0 .191-.957c0-.867-.442-1.63-1.112-2.078.364-.826.752-1.63 1.182-2.393.564.73 1.24 1.406 2.005 2.026-.044.14-.075.29-.075.445a1.5 1.5 0 0 0 1.5 1.5c.372 0 .707-.14.97-.364.773.418 1.594.792 2.466 1.108-.106.984-.396 1.9-.868 2.73z" fill="#a0a1a2"/><path d="M11.525 8h-7v1h1v3.97l-5.28 9.255C-.33 23.184.15 24 1.253 24H14.74c1.152 0 1.584-.768 1.008-1.776l-5.224-9.255V9h1V8z" fill="#59b4d9"/><path d="M11.652 17H4.376l-3.263 5.72c-.072.12-.098.2-.108.246.043.015.12.034.248.034H14.74c.114 0 .196-.012.25-.025a1.08 1.08 0 0 0-.11-.254L11.652 17z" fill="#0072c6"/><g fill="#ecf0f1"><path d="M4.525 9h1v3.97l-5.28 9.255C-.33 23.184.15 24 1.253 24h1.454l5.818-10.667V8h-4v1z" opacity=".25"/><path d="M3.252 23l3.273-6h-2.15l-3.263 5.72c-.072.12-.098.2-.108.246.043.015.12.034.248.034h2z" opacity=".25"/></g></svg>
